static/logos/lexus-glyph-color.svg

<svg width="32" height="32" viewBox="0 0 32 32" fill="none" xmlns="http://www.w3.org/2000/svg">
<path fill-rule="evenodd" clip-rule="evenodd" d="M16.642 6.78237C14.9664 8.72965 10.1872 15.0164 9.64258 15.8304C8.594 17.3901 8.50136 18.1459 8.47048 18.6495C8.44007 19.1438 8.44007 20.035 9.29306 20.7617C10.722 21.9629 12.7261 21.7689 14.5046 21.7689H29.1523C29.7793 21.7689 29.9646 21.5943 30.3038 21.1683C31.4755 19.4825 32 17.6516 32 16.0143C32 12.5074 29.5847 8.09026 23.4682 6.09447L22.779 7.02445C27.6307 9.19398 29.6357 12.0325 29.6357 16.0042C29.6666 17.07 29.368 18.2227 28.6278 19.2885H14.3806C13.5276 19.2885 13.4041 18.3779 13.7124 17.8642C14.9339 15.8156 16.297 13.8449 17.793 11.965C19.2323 10.1535 20.6505 8.45802 22.1412 6.68535C22.5422 6.19148 22.2746 5.71656 21.4731 5.56178C19.8078 5.23239 18.0709 5 15.9635 5C4.27665 5 0 11.3256 0 16.0143C0 21.1004 4.30707 27 15.9944 27C22.4805 27 26.7262 25.0329 29.1827 22.5048H26.7052C24.5566 24.3745 20.8662 25.7022 15.9944 25.7022C6.0954 25.7022 2.44668 20.461 2.44668 15.9464C2.51827 11.9165 6.43463 6.35596 16.2414 6.17208C16.6116 6.16237 16.8998 6.48207 16.642 6.78237Z" fill="black"/>
</svg>

<svg xmlns="http://www.w3.org/2000/svg" width="64" height="64" fill="none" viewBox="0 0 32 32"><path fill="#000" fill-rule="evenodd" d="M16.642 6.782c-1.676 1.948-6.455 8.234-7 9.048-1.048 1.56-1.14 2.316-1.172 2.82-.03.494-.03 1.385.823 2.112 1.429 1.2 3.433 1.007 5.212 1.007h14.647c.627 0 .813-.175 1.152-.6C31.476 19.482 32 17.651 32 16.013c0-3.507-2.415-7.924-8.532-9.92l-.689.93c4.852 2.17 6.857 5.009 6.857 8.98.03 1.066-.268 2.219-1.008 3.284H14.38c-.853 0-.977-.91-.669-1.424a53 53 0 0 1 4.081-5.899 242 242 0 0 1 4.348-5.28c.401-.494.134-.968-.668-1.123-1.665-.33-3.402-.562-5.51-.562C4.278 5 0 11.326 0 16.014 0 21.1 4.307 27 15.994 27c6.486 0 10.732-1.967 13.189-4.495h-2.478c-2.148 1.87-5.839 3.197-10.71 3.197-9.9 0-13.548-5.241-13.548-9.756.071-4.03 3.988-9.59 13.794-9.774.37-.01.659.31.401.61" clip-rule="evenodd"/></svg>
